src/components/00-materials/images-raw/Strethoscope.svg

<svg width="96" height="96" viewBox="0 0 96 96" fill="none" xmlns="http://www.w3.org/2000/svg">
<path d="M23 25C25.2091 25 27 23.2091 27 21C27 18.7909 25.2091 17 23 17C20.7909 17 19 18.7909 19 21C19 23.2091 20.7909 25 23 25Z" stroke="#00008F" stroke-width="2" stroke-linecap="round" stroke-linejoin="round"/>
<path d="M39 25C41.2091 25 43 23.2091 43 21C43 18.7909 41.2091 17 39 17C36.7909 17 35 18.7909 35 21C35 23.2091 36.7909 25 39 25Z" stroke="#00008F" stroke-width="2" stroke-linecap="round" stroke-linejoin="round"/>
<path d="M71 75C75.4183 75 79 71.4183 79 67C79 62.5817 75.4183 59 71 59C66.5817 59 63 62.5817 63 67C63 71.4183 66.5817 75 71 75Z" stroke="#00008F" stroke-width="2" stroke-linecap="round" stroke-linejoin="round"/>
<path d="M71 70C72.6569 70 74 68.6569 74 67C74 65.3431 72.6569 64 71 64C69.3431 64 68 65.3431 68 67C68 68.6569 69.3431 70 71 70Z" stroke="#00008F" stroke-width="2" stroke-linecap="round" stroke-linejoin="round"/>
<path d="M43 48C43 51.31 37.63 54 31 54C24.37 54 19 51.31 19 48M36 59L35.49 62.06C35.21 63.75 33 65 31 65C29 65 26.79 63.75 26.51 62.06L26 59H36Z" stroke="#00008F" stroke-width="2" stroke-linecap="round" stroke-linejoin="round"/>
<path d="M74 59.58V57C74 56.2044 73.6839 55.4413 73.1213 54.8787C72.5587 54.3161 71.7956 54 71 54C70.2044 54 69.4413 54.3161 68.8787 54.8787C68.3161 55.4413 68 56.2044 68 57V59.58M20.32 24C19.4578 25.5256 19.0032 27.2476 19 29V49C19 55.08 24.37 60 31 60C37.63 60 43 55.08 43 49V29C42.9968 27.2476 42.5422 25.5256 41.68 24H20.32Z" stroke="#00008F" stroke-width="2" stroke-linecap="round" stroke-linejoin="round"/>
<path d="M31 65.0001C31 74.0001 36.54 79.0001 43.38 79.0001C49.67 79.0001 55 75.0001 55 65.0001V41.0001C54.9748 39.9436 55.1591 38.8927 55.5424 37.9079C55.9256 36.9231 56.5001 36.024 57.2328 35.2625C57.9655 34.501 58.8418 33.8922 59.811 33.4713C60.7803 33.0503 61.8234 32.8256 62.88 32.8101C65.0318 32.8101 67.0957 33.6642 68.6182 35.1848C70.1407 36.7054 70.9973 38.7682 71 40.9201V53.9201" stroke="#00008F" stroke-width="2" stroke-linecap="round" stroke-linejoin="round"/>
</svg>

<svg width="96" height="96" viewBox="0 0 96 96" fill="none" xmlns="http://www.w3.org/2000/svg"><path d="M23 25a4 4 0 100-8 4 4 0 000 8zM39 25a4 4 0 100-8 4 4 0 000 8zM71 75a8 8 0 100-16 8 8 0 000 16z" stroke="#00008F" stroke-width="2" stroke-linecap="round" stroke-linejoin="round"/><path d="M71 70a3 3 0 100-6 3 3 0 000 6zM43 48c0 3.31-5.37 6-12 6s-12-2.69-12-6m17 11l-.51 3.06C35.21 63.75 33 65 31 65s-4.21-1.25-4.49-2.94L26 59h10z" stroke="#00008F" stroke-width="2" stroke-linecap="round" stroke-linejoin="round"/><path d="M74 59.58V57a3 3 0 00-6 0v2.58M20.32 24A10.2 10.2 0 0019 29v20c0 6.08 5.37 11 12 11s12-4.92 12-11V29a10.2 10.2 0 00-1.32-5H20.32z" stroke="#00008F" stroke-width="2" stroke-linecap="round" stroke-linejoin="round"/><path d="M31 65c0 9 5.54 14 12.38 14C49.67 79 55 75 55 65V41a7.999 7.999 0 017.88-8.19A8.12 8.12 0 0171 40.92v13" stroke="#00008F" stroke-width="2" stroke-linecap="round" stroke-linejoin="round"/></svg>
